Automatic/src/svg/Thomson - MOTO-content.svg

<svg xmlns="http://www.w3.org/2000/svg" xml:space="preserve" width="320" height="320"><defs><clipPath id="a" clipPathUnits="userSpaceOnUse"><path d="M0 256h256V0H0Z"/></clipPath></defs><g clip-path="url(#a)" transform="matrix(1.33333 0 0 -1.33333 -10.667 330.667)"><path d="M228 220h8v-4h-8zm16-202.728A5.267 5.267 0 0 0 238.728 12H224v82.133c0 5.441-4.555 9.867-10.154 9.867H66.154C60.555 104 56 99.574 56 94.133V12H33.091L12 38.363v200.365A5.27 5.27 0 0 0 17.272 244H32V133.8c0-5.404 4.222-9.8 9.412-9.8h173.176c5.19 0 9.412 4.396 9.412 9.8V212h16v12h-16v20h14.728a5.267 5.267 0 0 0 5.272-5.272zM192 12v72.728C192 91.049 187.927 96 182.728 96H77.272C72.073 96 68 91.049 68 84.728V12h-8v82.133c0 3.245 2.751 5.867 6.154 5.867h147.692c3.403 0 6.154-2.622 6.154-5.867V12ZM72 12v72.728C72 88.749 74.357 92 77.272 92h105.456c2.916 0 5.272-3.251 5.272-7.272V12Zm148 232V133.8c0-3.207-2.419-5.8-5.412-5.8H41.412c-2.993 0-5.412 2.593-5.412 5.8V244Zm18.728 4H17.272C12.16 248 8 243.84 8 238.728V36.961l.876-1.096L29.968 9.501 31.168 8h207.56C243.84 8 248 12.16 248 17.272v221.456c0 5.112-4.16 9.272-9.272 9.272" style="fill:#fff;fill-opacity:1;fill-rule:nonzero;stroke:none"/><path d="M88 80h28V24H88Zm-4-60h36v64H84Z" style="fill:#fff;fill-opacity:1;fill-rule:nonzero;stroke:none"/></g></svg>

<?xml version="1.0" encoding="UTF-8" standalone="no"?>
<svg
   xmlns:dc="http://purl.org/dc/elements/1.1/"
   xmlns:cc="http://creativecommons.org/ns#"
   xmlns:rdf="http://www.w3.org/1999/02/22-rdf-syntax-ns#"
   xmlns:svg="http://www.w3.org/2000/svg"
   xmlns="http://www.w3.org/2000/svg"
   viewBox="0 0 320 320"
   height="320"
   width="320"
   xml:space="preserve"
   id="svg2"
   version="1.1"><metadata
     id="metadata8"><rdf:RDF><cc:Work
         rdf:about=""><dc:format>image/svg+xml</dc:format><dc:type
           rdf:resource="http://purl.org/dc/dcmitype/StillImage" /></cc:Work></rdf:RDF></metadata><defs
     id="defs6"><clipPath
       id="clipPath18"
       clipPathUnits="userSpaceOnUse"><path
         id="path16"
         d="M 0,256 H 256 V 0 H 0 Z" /></clipPath></defs><g
     transform="matrix(1.3333333,0,0,-1.3333333,-10.666666,330.66666)"
     id="g10"><g
       id="g12"><g
         clip-path="url(#clipPath18)"
         id="g14"><path
           id="path20"
           style="fill:#ffffff;fill-opacity:1;fill-rule:nonzero;stroke:none"
           d="m 228,220 h 8 v -4 h -8 z M 244,17.272 C 244,14.357 241.644,12 238.728,12 H 224 V 94.133 C 224,99.574 219.445,104 213.846,104 H 66.154 C 60.555,104 56,99.574 56,94.133 V 12 H 33.091 L 12,38.363 v 200.365 c 0,2.915 2.357,5.272 5.272,5.272 H 32 V 133.8 c 0,-5.404 4.222,-9.8 9.412,-9.8 h 173.176 c 5.19,0 9.412,4.396 9.412,9.8 V 212 h 16 v 12 h -16 v 20 h 14.728 c 2.916,0 5.272,-2.357 5.272,-5.272 z M 192,12 V 84.728 C 192,91.049 187.927,96 182.728,96 H 77.272 C 72.073,96 68,91.049 68,84.728 V 12 H 60 V 94.133 C 60,97.378 62.751,100 66.154,100 H 213.846 C 217.249,100 220,97.378 220,94.133 V 12 Z M 72,12 V 84.728 C 72,88.749 74.357,92 77.272,92 H 182.728 C 185.644,92 188,88.749 188,84.728 V 12 Z M 220,244 V 133.8 c 0,-3.207 -2.419,-5.8 -5.412,-5.8 H 41.412 C 38.419,128 36,130.593 36,133.8 V 244 Z m 18.728,4 H 224 220 36 32 17.272 C 12.16,248 8,243.84 8,238.728 V 38.363 36.961 L 8.876,35.865 29.968,9.501 31.168,8 H 33.091 56 h 4 8 4 116 4 28 4 14.728 C 243.84,8 248,12.16 248,17.272 v 221.456 c 0,5.112 -4.16,9.272 -9.272,9.272" /><path
           id="path22"
           style="fill:#ffffff;fill-opacity:1;fill-rule:nonzero;stroke:none"
           d="m 88,80 h 28 V 24 H 88 Z M 84,20 h 36 V 84 H 84 Z" /></g></g></g></svg>
